webapp/public/assets/auth_providers/discord.svg

<?xml version="1.0" encoding="UTF-8" standalone="no"?>
<svg
  viewBox="0 0 256 293"
  version="1.1"
  xmlns="http://www.w3.org/2000/svg"
  xmlns:xlink="http://www.w3.org/1999/xlink"
  preserveAspectRatio="xMidYMid"
>
  <g>
    <path
      d="M226.011429,0 L29.9885714,0 C13.4582857,0 0,13.4582857 0,30.1348571 L0,227.913143 C0,244.589714 13.4582857,258.048 29.9885714,258.048 L195.876571,258.048 L188.123429,230.985143 L206.848,248.393143 L224.548571,264.777143 L256,292.571429 L256,30.1348571 C256,13.4582857 242.541714,0 226.011429,0 Z M169.545143,191.049143 C169.545143,191.049143 164.278857,184.758857 159.890286,179.2 C179.053714,173.787429 186.368,161.792 186.368,161.792 C180.370286,165.741714 174.665143,168.521143 169.545143,170.422857 C162.230857,173.494857 155.209143,175.542857 148.333714,176.713143 C134.290286,179.346286 121.417143,178.614857 110.445714,176.566857 C102.107429,174.957714 94.9394286,172.617143 88.9417143,170.276571 C85.5771429,168.96 81.92,167.350857 78.2628571,165.302857 C77.824,165.010286 77.3851429,164.864 76.9462857,164.571429 C76.6537143,164.425143 76.5074286,164.278857 76.3611429,164.132571 C73.728,162.669714 72.2651429,161.645714 72.2651429,161.645714 C72.2651429,161.645714 79.2868571,173.348571 97.8651429,178.907429 C93.4765714,184.466286 88.064,191.049143 88.064,191.049143 C55.7348571,190.025143 43.4468571,168.813714 43.4468571,168.813714 C43.4468571,121.709714 64.512,83.5291429 64.512,83.5291429 C85.5771429,67.7302857 105.618286,68.1691429 105.618286,68.1691429 L107.081143,69.9245714 C80.7497143,77.5314286 68.608,89.088 68.608,89.088 C68.608,89.088 71.8262857,87.3325714 77.2388571,84.8457143 C92.8914286,77.9702857 105.325714,76.0685714 110.445714,75.6297143 C111.323429,75.4834286 112.054857,75.3371429 112.932571,75.3371429 C121.856,74.1668571 131.949714,73.8742857 142.482286,75.0445714 C156.379429,76.6537143 171.300571,80.7497143 186.514286,89.088 C186.514286,89.088 174.957714,78.1165714 150.089143,70.5097143 L152.137143,68.1691429 C152.137143,68.1691429 172.178286,67.7302857 193.243429,83.5291429 C193.243429,83.5291429 214.308571,121.709714 214.308571,168.813714 C214.308571,168.813714 201.874286,190.025143 169.545143,191.049143 Z M101.522286,122.733714 C93.184,122.733714 86.6011429,130.048 86.6011429,138.971429 C86.6011429,147.894857 93.3302857,155.209143 101.522286,155.209143 C109.860571,155.209143 116.443429,147.894857 116.443429,138.971429 C116.589714,130.048 109.860571,122.733714 101.522286,122.733714 M154.916571,122.733714 C146.578286,122.733714 139.995429,130.048 139.995429,138.971429 C139.995429,147.894857 146.724571,155.209143 154.916571,155.209143 C163.254857,155.209143 169.837714,147.894857 169.837714,138.971429 C169.837714,130.048 163.254857,122.733714 154.916571,122.733714"
      fill="#7289DA"
    ></path>
  </g>
</svg>

<svg
  viewBox="0 0 256 293"
  xmlns="http://www.w3.org/2000/svg"
  preserveAspectRatio="xMidYMid"
>
  <path
    d="M226.011 0H29.99C13.459 0 0 13.458 0 30.135v197.778c0 16.677 13.458 30.135 29.989 30.135h165.888l-7.754-27.063 18.725 17.408 17.7 16.384L256 292.571V30.135C256 13.458 242.542 0 226.011 0zm-56.466 191.05s-5.266-6.291-9.655-11.85c19.164-5.413 26.478-17.408 26.478-17.408-5.998 3.95-11.703 6.73-16.823 8.63-7.314 3.073-14.336 5.12-21.211 6.291-14.044 2.633-26.917 1.902-37.888-.146-8.339-1.61-15.507-3.95-21.504-6.29-3.365-1.317-7.022-2.926-10.68-4.974-.438-.293-.877-.439-1.316-.732-.292-.146-.439-.292-.585-.438-2.633-1.463-4.096-2.487-4.096-2.487s7.022 11.703 25.6 17.261c-4.388 5.56-9.801 12.142-9.801 12.142-32.33-1.024-44.617-22.235-44.617-22.235 0-47.104 21.065-85.285 21.065-85.285 21.065-15.799 41.106-15.36 41.106-15.36l1.463 1.756C80.75 77.53 68.608 89.088 68.608 89.088s3.218-1.755 8.63-4.242c15.653-6.876 28.088-8.777 33.208-9.216.877-.147 1.609-.293 2.487-.293a123.776 123.776 0 0129.55-.292c13.896 1.609 28.818 5.705 44.031 14.043 0 0-11.556-10.971-36.425-18.578l2.048-2.34s20.041-.44 41.106 15.36c0 0 21.066 38.18 21.066 85.284 0 0-12.435 21.211-44.764 22.235zm-68.023-68.316c-8.338 0-14.92 7.314-14.92 16.237 0 8.924 6.728 16.238 14.92 16.238 8.339 0 14.921-7.314 14.921-16.238.147-8.923-6.582-16.237-14.92-16.237m53.394 0c-8.339 0-14.922 7.314-14.922 16.237 0 8.924 6.73 16.238 14.922 16.238 8.338 0 14.92-7.314 14.92-16.238 0-8.923-6.582-16.237-14.92-16.237"
    fill="#7289DA"
  />
</svg>
